X:052
U: ~ = !turn!
%%topmargin 3cm
T:Devils in Dublin
B:Traditional Irish Fiddle Tunes. Randy Miller and Jack Perron.
Z:Transcribed by Ralph Palmer
S:Michael Coleman
R:Reel
L:1/8
M:C|
K:D
((3dcB) ((3cBA) BFFB | AF (3.F.F.F DF (3.F.F.F | Ad ~d2 Adfd | ((3efe) df eB ~B2 |
dedB BAFB | AF (3.F.F.F DF (3.F.F.F | ABde fece | dBAG FD D2 ::
((3agf) ((3gfe) fdec | ((3dcB) ((3cBA) BFFB | Ad ~d2 Adfd | eB ~B2 [Fe][BB] ~B2 |
abag fgfe | defd BAFB | ABde ((3fga) ec | dBAG FE E2 :|]
